src/lib/server/db/seeds/delhaize.svg

<?xml version="1.0" encoding="UTF-8" standalone="no"?>
<svg
   version="1.1"
   preserveAspectRatio="none"
   x="0px"
   y="0px"
   width="145"
   height="120"
   viewBox="0 0 145 120"
   id="svg6"
   sodipodi:docname="delhaize.svg"
   inkscape:version="1.4 (e7c3feb100, 2024-10-09)"
   xmlns:inkscape="http://www.inkscape.org/namespaces/inkscape"
   xmlns:sodipodi="http://sodipodi.sourceforge.net/DTD/sodipodi-0.dtd"
   xmlns:xlink="http://www.w3.org/1999/xlink"
   xmlns="http://www.w3.org/2000/svg"
   xmlns:svg="http://www.w3.org/2000/svg">
  <sodipodi:namedview
     id="namedview6"
     pagecolor="#ffffff"
     bordercolor="#000000"
     borderopacity="0.25"
     inkscape:showpageshadow="2"
     inkscape:pageopacity="0.0"
     inkscape:pagecheckerboard="0"
     inkscape:deskcolor="#d1d1d1"
     inkscape:zoom="2.7276923"
     inkscape:cx="91.102651"
     inkscape:cy="60.124083"
     inkscape:window-width="1920"
     inkscape:window-height="1020"
     inkscape:window-x="0"
     inkscape:window-y="26"
     inkscape:window-maximized="1"
     inkscape:current-layer="svg6" />
  <defs
     id="defs2">
    <g
       id="lion_0_Layer0_0_FILL">
      <path
         fill="#FFFFFF"
         stroke="none"
         d="M 8.3,-33.55 V -46.9 h 48.75 l 7.65,5.75 v -14.1 H -0.05 v 28.5 h 55.8 V -14 h -66.3 v -34.4 l -6.7,2.8 5.2,-14.05 -12.7,5.4 h -10.1 v 1.65 H -45.5 l -1.5,3.55 h -13.55 l 1.9,8.2 10.45,-0.95 3.85,1.2 0.95,4.1 -26.7,-0.7 -2.25,6.7 3.55,1.2 2.1,-4.35 23.85,0.65 -6.95,7.9 -7.55,-4.1 -2.65,2.5 5.6,7.85 -13.45,44.05 7.55,-4.15 5.75,10.2 -10.7,17.35 -4.3,3.5 -2.5,7.55 h 21.65 l -1.75,-7.15 15,-21.6 7.35,18.25 -7.65,4.7 -1.5,5.8 h 25.6 l 1.4,-7.05 -7.4,-11.55 9,-13.2 H 9.05 L 35.7,16.5 17.25,50.3 10.3,52.6 9.1,59.65 h 22.45 l 1.2,-7.6 14.7,-21.05 10.6,11.5 -3.2,8.5 -7.95,1.75 -2.95,6.9 H 67.1 l 5.3,-16.5 -7.7,-31 v -39.2 l -7.25,-6.5 z"
         id="path1" />
    </g>
    <g
       id="delh_0_Layer0_0_FILL">
      <path
         fill="#bc0000"
         stroke="none"
         d="m -139.95,-9.8 v -30.25 h 27.9 V -56.5 h -45.4 V 56.55 h 46.65 V 39.8 h -29.15 V 5.95 h 20.6 V -9.8 h -20.6 m 57.6,-46.7 h -17.5 V 56.55 H -55.7 V 40 h -26.65 v -96.5 m -98.2,3.95 q -6.1,-3.9 -16.35,-3.95 h -25.2 V 56.55 h 25.2 q 10.25,-0.05 16.35,-3.95 6.1,-3.9 8.8,-10.8 2.7,-6.85 2.6,-15.75 v -52 q 0.1,-8.95 -2.6,-15.8 -2.7,-6.8 -8.8,-10.8 m -8.4,15.4 q 2.3,3.25 2.15,9.9 V 27.3 q 0.15,6.7 -2.15,10 -2.3,3.3 -8.6,3.3 h -7.05 v -81.15 h 7.05 q 6.3,0 8.6,3.4 M 8.15,56.55 V -56.5 H -9.35 V -8.9 H -28 V -56.5 H -45.5 V 56.55 H -28 V 7.7 H -9.35 V 56.55 H 8.15 M 193,-9.8 v -30.25 h 27.9 V -56.5 H 175.5 V 56.55 h 46.65 V 39.8 H 193 V 5.95 h 20.6 V -9.8 H 193 m -76,-30.15 h 28.55 L 114.2,44.2 v 12.35 h 49.6 V 40 h -30.3 l 31,-84.1 V -56.5 H 117 v 16.55 M 102.5,-56.5 H 84.95 V 56.55 H 102.5 V -56.5 m -45.55,0 H 36.25 L 17.7,56.55 H 34.6 L 37.65,33.1 h 17.8 l 3.1,23.45 h 16.9 L 56.95,-56.5 M 53.1,17 H 40 l 6.65,-46.65 z"
         id="path2" />
    </g>
  </defs>
  <g
     transform="matrix(0.99971008,0,0,1.0062866,72.35,60)"
     id="g3">
    <g
       id="g2">
      <use
         xlink:href="#lion_0_Layer0_0_FILL"
         id="use2" />
    </g>
  </g>
  <g
     transform="matrix(1.0005341,0,0,1.000412,419.85,55.95)"
     id="g4" />
</svg>

<svg xmlns="http://www.w3.org/2000/svg" version="1.1" xmlns:xlink="http://www.w3.org/1999/xlink" preserveAspectRatio="none" x="0px" y="0px" width="650px" height="120px" viewBox="0 0 650 120">
<defs>
<g id="lion_0_Layer0_0_FILL">
<path fill="#000000" stroke="none" d="
M 8.3 -33.55
L 8.3 -46.9 57.05 -46.9 64.7 -41.15 64.7 -55.25 -0.05 -55.25 -0.05 -26.75 55.75 -26.75 55.75 -14 -10.55 -14 -10.55 -48.4 -17.25 -45.6 -12.05 -59.65 -24.75 -54.25 -34.85 -54.25 -34.85 -52.6 -45.5 -52.6 -47 -49.05 -60.55 -49.05 -58.65 -40.85 -48.2 -41.8 -44.35 -40.6 -43.4 -36.5 -70.1 -37.2 -72.35 -30.5 -68.8 -29.3 -66.7 -33.65 -42.85 -33 -49.8 -25.1 -57.35 -29.2 -60 -26.7 -54.4 -18.85 -67.85 25.2 -60.3 21.05 -54.55 31.25 -65.25 48.6 -69.55 52.1 -72.05 59.65 -50.4 59.65 -52.15 52.5 -37.15 30.9 -29.8 49.15 -37.45 53.85 -38.95 59.65 -13.35 59.65 -11.95 52.6 -19.35 41.05 -10.35 27.85 9.05 27.85 35.7 16.5 17.25 50.3 10.3 52.6 9.1 59.65 31.55 59.65 32.75 52.05 47.45 31 58.05 42.5 54.85 51 46.9 52.75 43.95 59.65 67.1 59.65 72.4 43.15 64.7 12.15 64.7 -27.05 57.45 -33.55 8.3 -33.55 Z"/>
</g>

<g id="delh_0_Layer0_0_FILL">
<path fill="#BC0000" stroke="none" d="
M -139.95 -9.8
L -139.95 -40.05 -112.05 -40.05 -112.05 -56.5 -157.45 -56.5 -157.45 56.55 -110.8 56.55 -110.8 39.8 -139.95 39.8 -139.95 5.95 -119.35 5.95 -119.35 -9.8 -139.95 -9.8
M -82.35 -56.5
L -99.85 -56.5 -99.85 56.55 -55.7 56.55 -55.7 40 -82.35 40 -82.35 -56.5
M -180.55 -52.55
Q -186.65 -56.45 -196.9 -56.5
L -222.1 -56.5 -222.1 56.55 -196.9 56.55
Q -186.65 56.5 -180.55 52.6 -174.45 48.7 -171.75 41.8 -169.05 34.95 -169.15 26.05
L -169.15 -25.95
Q -169.05 -34.9 -171.75 -41.75 -174.45 -48.55 -180.55 -52.55
M -188.95 -37.15
Q -186.65 -33.9 -186.8 -27.25
L -186.8 27.3
Q -186.65 34 -188.95 37.3 -191.25 40.6 -197.55 40.6
L -204.6 40.6 -204.6 -40.55 -197.55 -40.55
Q -191.25 -40.55 -188.95 -37.15
M 8.15 56.55
L 8.15 -56.5 -9.35 -56.5 -9.35 -8.9 -28 -8.9 -28 -56.5 -45.5 -56.5 -45.5 56.55 -28 56.55 -28 7.7 -9.35 7.7 -9.35 56.55 8.15 56.55
M 193 -9.8
L 193 -40.05 220.9 -40.05 220.9 -56.5 175.5 -56.5 175.5 56.55 222.15 56.55 222.15 39.8 193 39.8 193 5.95 213.6 5.95 213.6 -9.8 193 -9.8
M 117 -39.95
L 145.55 -39.95 114.2 44.2 114.2 56.55 163.8 56.55 163.8 40 133.5 40 164.5 -44.1 164.5 -56.5 117 -56.5 117 -39.95
M 102.5 -56.5
L 84.95 -56.5 84.95 56.55 102.5 56.55 102.5 -56.5
M 56.95 -56.5
L 36.25 -56.5 17.7 56.55 34.6 56.55 37.65 33.1 55.45 33.1 58.55 56.55 75.45 56.55 56.95 -56.5
M 53.1 17
L 40 17 46.65 -29.65 53.1 17 Z"/>
</g>
</defs>

<g transform="matrix( 0.9997100830078125, 0, 0, 1.00628662109375, 72.35,60) ">
<g transform="matrix( 1, 0, 0, 1, 0,0) ">
<use xlink:href="#lion_0_Layer0_0_FILL"/>
</g>
</g>

<g transform="matrix( 1.0005340576171875, 0, 0, 1.0004119873046875, 419.85,55.95) "/>

<g transform="matrix( 1.06201171875, 0, 0, 1.0619049072265625, 178.2,0) ">
<g transform="matrix( 1, 0, 0, 1, 222.1,56.5) ">
<use xlink:href="#delh_0_Layer0_0_FILL"/>
</g>
</g>
</svg>
